X:1
T:O cruaulté logée
T:Le Rat
T:Source : Livre IX de 27 chansons nouvelles à 4 parties---Paris---N.du Chemin---1551. Editor : André Vierendeels (12/04/18) Notes : Original clefs : G2, C2, C4 ,F4 Original note values have been halved Editorial accidentals above the staff Dotted bracket indicates black notes  
T:O cruaulté logée
T:©
T:©
T:©
C:Le Rat
Z:©
%%score [ 1 2 3 4 ]
L:1/8
Q:1/4=120
M:2/2
K:F
V:1 treble nm="Soprano" snm="S"
V:2 treble nm="Alto" snm="A"
V:3 treble-8 nm="Tenor" snm="T"
V:4 bass nm="Bass" snm="B"
V:1
 d8 | c2 B2 A4- | A2 A2 A2 A2 | G2 F2 E4 | B8 | A2 G2 F4- | F2 F2 A2 A2 | G2 F4 E2 | F2 F2 F4 | %9
w: O|cru- aul- té,|_ lo- gé- e'en|grand beaul- té,|O|grand beaul- té,|_ qui lo- gez|cru- * aul-|té, quand ma|
 G4 A2 A2 | B6 B2 | A4 G2 F2 | G8 | z2 G2 c2 c2 | A4 z2 A2 | d2 d2 c2 A2 | A2 A2 G2 F2 | %17
w: dou- leur ia-|mais ne|sen- * ti-|ras,|au moins un|iour, au|moins un iour, pen-|s'en ma loy- aul-|
 EFGE FGAB | c2 c2 A2 B2- | B2 A4 G2 | A4 z2 A2 | B2 A2 z2 A2 | B2 A2 G2 F2- | F2 E2 F4 | %24
w: té, _ _ _ _ _ _ _|in- gra- te'a- lors|_ peult e-|stre, peult|e- stre, peult|e- stre te di-|* * ras,|
 z2 F2 c2 c2 | A4 z2 A2 | d2 d2 c2 A2 | A2 A2 G2 F2 | EFGE FGAB | c2 c2 A2 B2- | B2 A4 G2 | %31
w: au moins un|iour, au|moins un iour, pen-|s'en ma loy- aul-|té _ _ _ _ _ _ _|_ in- gra- te'a-||
 A4 z2 A2 | B2 A2 z2 A2 | B2 A2 G2 F2- |[M:2/4] F2 E2 |[M:2/2] F8 |] %36
w: lors, peult|es- tre, peult|e- stre te di-||ras.|
V:2
 B8 | A2 G2 F4- | F2 F2 F2 F2 | E2 D2 C4 | F8 | F2 D2 D4- | D2 D2 C2 A,2 | D2 B,2 C4 | %8
w: O|cru- aul- té,|_ lo- gé- e'en|grand beaul- té,|O|grand beaul- té,|_ qui lo- gez|cru- * aul-|
 A,2 C2 D2 F2- | F2 E2 F2 F2- | FE D4 CB, | C2 A,2 B,2 C2 | D4 E4- | E8 | z2 C2 F2 F2 | D4 F4- | %16
w: té, quand ma dou-|* * leur ia-|* * mais _ _|_ _ _ sen-|ti- ras,|_|au moins un|iour, pen-|
 F2 F2 E2 D2 | C2 D2 D4 | E2 F4 F2 | F4 D4- | D4 z2 F2 | F2 FC D2 C2 | F3 E D2 B,2 | C4 A,4- | %24
w: * s'en ma loy-|* * aul-|té in gra-|te'a- lors|_ peult|e- stre peult e- stre|te _ _ _|di- ras,|
 A,4 z4 | z2 C2 F2 F2 | D4 F4- | F2 F2 E2 D2 | C2 D2 D4 | E2 F4 F2 | F4 D4- | D4 z2 F2 | %32
w: _|au moins un|iour,, pen-|* s'en ma _|_ loy- aul-|té, in gra-|te'a- lors,|_ peut|
 F2 FC D2 C2 | F3 E D2 B,2 |[M:2/4] E4 |[M:2/2] C8 |] %36
w: e- stre, peult e- stre|te _ _ _|di-|ras;|
V:3
 f8 | f2 d2 d4- | d2 d2 c2 c2 | c2 A2 A4 | d8 | c2 B2 A4- | A2 A2 ABcA | BAAG/F/ G2 G2 | F2 F2 B4 | %9
w: O|cru- aul- té,|_ lo- gé- e'en|grand beaul- té,|O|grand beaul- té|_ qui lo- * * *|gez _ _ _ _ cru- aul-|té, quand ma|
 G4 F2 c2 | B2 f4 e2 | f3 e d2 c2 | c2 B2 c2 G2 | c2 c2 A2 c2- | c2 f2 f2 d2- | d2 cB A2 A2 | %16
w: dou- leur, quand|ma dou- *|leur ia- mais ne|sen- ti- ras, au|moins un iour, au|_ moins un iour|_ _ _ _ pen-|
 c2 c2 c2 A2 | A2 B2 B2 A2 | G2 AB c2 d2- | dccB/A/ B4 | A2 A2 B2 Ac | d2 cA B2 A2 | %22
w: s'en ma loy- aul-|té, in gra- te'a-|lors _ _ _ _|_ _ _ _ _ _|* peult e- stre, peult|e- stre, peult _ e-|
 d2 c2 BAAG/F/ | G4 F2 F2 | c2 c2 A2 c2- | c2 f2 f2 d2- | d2 cB A2 A2 | c2 c2 c2 A2 | A2 B2 B2 A2 | %29
w: stre te di- * * * *|* ras, au|moins un iour, au|_ moins un iour|_ _ _ _ pen-|s'en ma loy- aul-|té, in gra- te'a-|
 G2 A2 c2 d2- | dc cB/A/ B4 | A2 A2 B2 Ac | d2 cA B2 A2 | d2 c2 BAAG/F/ |[M:2/4] G4 |[M:2/2] F8 |] %36
w: lors, in- gra- te'a-||lors, peult e- stre, peult|e- stre, peult e- stre|te di- * * * * *||ras.|
V:4
 B,,8 | F,2 G,2 D,4- | D,2 D,2 F,2 F,2 | C,2 D,2 A,,4 | B,,8 | F,2 G,2 D,4- | D,2 D,2 F,2 F,2 | %7
w: O|cru- aul- té,|_ lo- gé- e'en|grand beaul- té,|O|grand beaul- té|_ qui lo- gez|
 B,,2 D,2 C,4 | F,4 z4 | z4 z2 F,2 | B,4 G,4 | F,2 F,2 G,2 A,2 | G,2 G,2 C,4- | C,4 z2 C,2 | %14
w: cru- * aul-|té,|quand|ma dou-|leur ia- mais ne|sen- ti- ras,|_ au|
 F,2 F,2 D,3 C, | B,,2 B,,2 F,4- | F,2 F,2 C,2 D,2 | A,,2 G,,2 D,4 | C,2 F,4 B,,2 | F,4 G,4 | %20
w: moins un iour, _|_ pen- s'en|_ ma loy- aul-|té, in- gra-|te'a- * *||
 D,4 z2 F,2 | B,,2 F,2 z2 F,2 | B,,2 F,2 B,,2 D,2 | C,4 F,,4- | F,,4 z2 C,2 | F,2 F,2 D,3 C, | %26
w: lors, peult|e- stre, peult|e- stre te _|di- ras,|_ au|moins un iour, _|
 B,,2 B,,2 F,4- | F,2 F,2 C,2 D,2 | A,,2 G,,2 D,4 | C,2 F,4 B,,2 | F,4 G,4 | D,4 z2 F,2 | %32
w: _ pen- s'en|_ ma loy- aul-|té, in gra-|te'a- * *||lors, peult|
 B,,2 F,2 z2 F,2 | B,,2 F,2 B,,2 D,2 |[M:2/4] C,4 |[M:2/2] F,,8 |] %36
w: e- stre, peult|e- stre te _|di-|ras.|

